X: 2974
T: Basquet Of Oysters
R: jig
M: 6/8
K: Gmajor
|:B|d2g gfg|a2f d2B|c2c cBc|d2B G2B|
d2g gfg|a2f d2B|c2c BBA|G3 G2:|
|:A|Bcd Bcd|e2c e2c|ABc ABc|d2B d2B|
ded B2g|f2e c2e|ded cBA|G3 G2:|
|:d|e2d BAG|AAA A2d|e2d cBA|GGG G2d|
e2d BAG|AAA A2d|e2d cBA|GGG G2:|

